Origami/32x32/apps/fern-wifi-cracker.svg

<svg xmlns="http://www.w3.org/2000/svg" width="32" height="32" version="1.1" viewBox="0 0 32 32">
 <path style="opacity:0.2" d="M 16,2.9999996 A 14,14 0 0 0 2,17 14,14 0 0 0 16,31 14,14 0 0 0 30,17 14,14 0 0 0 16,2.9999996 Z"/>
 <path style="fill:#afba0d" d="M 16,1.9999996 A 14,14 0 0 0 2,16 14,14 0 0 0 16,30 14,14 0 0 0 30,16 14,14 0 0 0 16,1.9999996 Z"/>
 <path style="opacity:0.2" d="M 20.470703,8.0581878 19.574219,9.8511565 A 8,8 0 0 1 24,16.999594 8,8 0 0 1 19.576172,24.151938 l 0.890625,1.78125 A 10,10 0 0 0 26,16.999594 10,10 0 0 0 20.470703,8.0581878 Z m -8.9375,0.00781 A 10,10 0 0 0 6,16.999594 10,10 0 0 0 11.529297,25.941 l 0.896484,-1.792968 A 8,8 0 0 1 8,16.999594 8,8 0 0 1 12.423828,9.8472502 Z m 7.148438,3.5683598 -0.894532,1.791015 A 4,4 0 0 1 20,16.999594 4,4 0 0 1 17.789062,20.575766 l 0.890626,1.783203 A 6,6 0 0 0 22,16.999594 6,6 0 0 0 18.681641,11.63436 Z m -5.361329,0.0059 A 6,6 0 0 0 10,16.999594 a 6,6 0 0 0 3.318359,5.365234 l 0.894532,-1.791015 A 4,4 0 0 1 12,16.999594 4,4 0 0 1 14.210938,13.423422 Z"/>
 <path style="fill:#3f3f3f" d="m 15,17.000003 v 12.907396 a 10,15.294114 0 0 0 1,0.0926 10,15.294114 0 0 0 1,-0.07618 V 17.000003 Z"/>
 <circle style="opacity:0.2" cx="16" cy="17" r="2"/>
 <circle style="fill:#3f3f3f" cx="16" cy="16" r="2"/>
 <path style="fill:#3f3f3f" d="M 20.470703 7.0585938 L 19.574219 8.8515625 A 8 8 0 0 1 24 16 A 8 8 0 0 1 19.576172 23.152344 L 20.466797 24.933594 A 10 10 0 0 0 26 16 A 10 10 0 0 0 20.470703 7.0585938 z M 11.533203 7.0664062 A 10 10 0 0 0 6 16 A 10 10 0 0 0 11.529297 24.941406 L 12.425781 23.148438 A 8 8 0 0 1 8 16 A 8 8 0 0 1 12.423828 8.8476562 L 11.533203 7.0664062 z M 18.681641 10.634766 L 17.787109 12.425781 A 4 4 0 0 1 20 16 A 4 4 0 0 1 17.789062 19.576172 L 18.679688 21.359375 A 6 6 0 0 0 22 16 A 6 6 0 0 0 18.681641 10.634766 z M 13.320312 10.640625 A 6 6 0 0 0 10 16 A 6 6 0 0 0 13.318359 21.365234 L 14.212891 19.574219 A 4 4 0 0 1 12 16 A 4 4 0 0 1 14.210938 12.423828 L 13.320312 10.640625 z"/>
 <path style="fill:#ffffff;opacity:0.2" d="M 16 2 A 14 14 0 0 0 2 16 A 14 14 0 0 0 2.0214844 16.414062 A 14 14 0 0 1 16 3 A 14 14 0 0 1 29.978516 16.585938 A 14 14 0 0 0 30 16 A 14 14 0 0 0 16 2 z"/>
</svg>

<svg width="32" height="32" version="1.1" viewBox="0 0 32 32" xmlns="http://www.w3.org/2000/svg">
 <path d="m16 2.9999996a14 14 0 0 0 -14 14 14 14 0 0 0 14 14 14 14 0 0 0 14 -14 14 14 0 0 0 -14 -14z" style="opacity:.2"/>
 <path d="m16 1.9999996a14 14 0 0 0 -14 14 14 14 0 0 0 14 14 14 14 0 0 0 14 -14 14 14 0 0 0 -14 -14z" style="fill:#afba0d"/>
 <path d="M 20.470703,8.0581878 19.574219,9.8511565 A 8,8 0 0 1 24,16.999594 8,8 0 0 1 19.576172,24.151938 l 0.890625,1.78125 A 10,10 0 0 0 26,16.999594 10,10 0 0 0 20.470703,8.0581878 Z m -8.9375,0.00781 A 10,10 0 0 0 6,16.999594 10,10 0 0 0 11.529297,25.941 l 0.896484,-1.792968 A 8,8 0 0 1 8,16.999594 8,8 0 0 1 12.423828,9.8472502 Z m 7.148438,3.5683598 -0.894532,1.791015 A 4,4 0 0 1 20,16.999594 4,4 0 0 1 17.789062,20.575766 l 0.890626,1.783203 A 6,6 0 0 0 22,16.999594 6,6 0 0 0 18.681641,11.63436 Z m -5.361329,0.0059 A 6,6 0 0 0 10,16.999594 a 6,6 0 0 0 3.318359,5.365234 l 0.894532,-1.791015 A 4,4 0 0 1 12,16.999594 4,4 0 0 1 14.210938,13.423422 Z" style="opacity:.2"/>
 <path d="m15 17.000003v12.907396a10 15.294114 0 0 0 1 0.0926 10 15.294114 0 0 0 1 -0.07618v-12.923816z" style="fill:#3f3f3f"/>
 <circle cx="16" cy="17" r="2" style="opacity:.2"/>
 <circle cx="16" cy="16" r="2" style="fill:#3f3f3f"/>
 <path d="M 20.470703 7.0585938 L 19.574219 8.8515625 A 8 8 0 0 1 24 16 A 8 8 0 0 1 19.576172 23.152344 L 20.466797 24.933594 A 10 10 0 0 0 26 16 A 10 10 0 0 0 20.470703 7.0585938 z M 11.533203 7.0664062 A 10 10 0 0 0 6 16 A 10 10 0 0 0 11.529297 24.941406 L 12.425781 23.148438 A 8 8 0 0 1 8 16 A 8 8 0 0 1 12.423828 8.8476562 L 11.533203 7.0664062 z M 18.681641 10.634766 L 17.787109 12.425781 A 4 4 0 0 1 20 16 A 4 4 0 0 1 17.789062 19.576172 L 18.679688 21.359375 A 6 6 0 0 0 22 16 A 6 6 0 0 0 18.681641 10.634766 z M 13.320312 10.640625 A 6 6 0 0 0 10 16 A 6 6 0 0 0 13.318359 21.365234 L 14.212891 19.574219 A 4 4 0 0 1 12 16 A 4 4 0 0 1 14.210938 12.423828 L 13.320312 10.640625 z" style="fill:#3f3f3f"/>
 <path d="M 16 2 A 14 14 0 0 0 2 16 A 14 14 0 0 0 2.0214844 16.414062 A 14 14 0 0 1 16 3 A 14 14 0 0 1 29.978516 16.585938 A 14 14 0 0 0 30 16 A 14 14 0 0 0 16 2 z" style="fill:#ffffff;opacity:.2"/>
</svg>
